Icons/au_com_shiftyjelly_pocketcasts.svg

<svg viewBox="0 0 48 48" xmlns:xlink="http://www.w3.org/1999/xlink">
 <defs>
  <linearGradient id="0">
   <stop stop-opacity="0"/>
   <stop offset="1"/>
  </linearGradient>
  <linearGradient xlink:href="#0" id="1" gradientUnits="userSpaceOnUse" gradientTransform="translate(4e-7,-48)" y1="47" x2="0" y2="1"/>
  <clipPath id="2">
   <g transform="translate(0,-1004.3622)">
    <rect rx="4" y="1005.36" x="1" height="46" width="46" fill="#1890d0"/>
   </g>
  </clipPath>
  <clipPath id="3">
   <g transform="translate(0,-1004.3622)">
    <rect rx="4" y="1005.36" x="1" height="46" width="46" fill="#1890d0"/>
   </g>
  </clipPath>
 </defs>
 <g>
  <g transform="translate(0,-1004.3622)">
   <path d="m 5,1006.3622 c -2.216,0 -4,1.784 -4,4 l 0,37.25 c 0,2.216 1.784,4 4,4 l 38,0 c 2.216,0 4,-1.784 4,-4 l 0,-37.25 c 0,-2.216 -1.784,-4 -4,-4 l -38,0 z m -4,41.5 0,0.5 c 0,2.216 1.784,4 4,4 l 38,0 c 2.216,0 4,-1.784 4,-4 l 0,-0.5 c 0,2.216 -1.784,4 -4,4 l -38,0 c -2.216,0 -4,-1.784 -4,-4 z" opacity="0.02"/>
   <path d="m 1,1047.6122 0,0.25 c 0,2.216 1.784,4 4,4 l 38,0 c 2.216,0 4,-1.784 4,-4 l 0,-0.25 c 0,2.216 -1.784,4 -4,4 l -38,0 c -2.216,0 -4,-1.784 -4,-4 z" opacity="0.05"/>
   <rect width="46" height="46" x="1" y="1005.61" rx="4" opacity="0.1"/>
  </g>
 </g>
 <g>
  <g transform="translate(0,-1004.3622)">
   <rect rx="4" y="1005.36" x="1" height="46" width="46" fill="#ea0a0a"/>
  </g>
 </g>
 <g>
  <rect transform="scale(1,-1)" width="46" height="46" x="1" y="-46.998" rx="4" opacity="0.1" fill="url(#1)"/>
 </g>
 <g>
  <g clip-path="url(#2)">
   <g opacity="0.1">
    <g>
     <path d="M 24 9 C 15.746094 9 9 15.753906 9 24.015625 C 9 31.941406 15.210938 38.480469 23 39 L 23 36.902344 C 16.304688 36.390625 11.0625 30.855469 11.0625 24.015625 C 11.0625 16.832031 16.824219 11.066406 24 11.066406 C 31.175781 11.066406 36.9375 16.832031 36.9375 24.015625 L 39 24.015625 C 39 15.753906 32.253906 9 24 9 Z M 24 9 "/>
     <path d="M 24 13.003906 C 17.835938 13.003906 13 18.042969 13 24.015625 C 13 29.65625 17.328125 34.449219 23 34.964844 L 23 33.054688 C 18.695312 32.542969 15.21875 28.792969 15.21875 24.015625 C 15.21875 18.871094 19.242188 14.882812 24 14.882812 C 28.757812 14.882812 32.78125 18.871094 32.78125 24.015625 L 35 24.015625 C 35 18.042969 30.164062 13.003906 24 13.003906 Z M 24 13.003906 "/>
    </g>
   </g>
  </g>
 </g>
 <g>
  <g clip-path="url(#3)">
   <g transform="translate(0,-1)">
    <g>
     <path d="M 24 9 C 15.746094 9 9 15.753906 9 24.015625 C 9 31.941406 15.210938 38.480469 23 39 L 23 36.902344 C 16.304688 36.390625 11.0625 30.855469 11.0625 24.015625 C 11.0625 16.832031 16.824219 11.066406 24 11.066406 C 31.175781 11.066406 36.9375 16.832031 36.9375 24.015625 L 39 24.015625 C 39 15.753906 32.253906 9 24 9 Z M 24 9 " fill="#f9f9f9"/>
     <path d="M 24 13.003906 C 17.835938 13.003906 13 18.042969 13 24.015625 C 13 29.65625 17.328125 34.449219 23 34.964844 L 23 33.054688 C 18.695312 32.542969 15.21875 28.792969 15.21875 24.015625 C 15.21875 18.871094 19.242188 14.882812 24 14.882812 C 28.757812 14.882812 32.78125 18.871094 32.78125 24.015625 L 35 24.015625 C 35 18.042969 30.164062 13.003906 24 13.003906 Z M 24 13.003906 " fill="#f9f9f9"/>
    </g>
   </g>
  </g>
 </g>
 <g>
  <g transform="translate(0,-1004.3622)">
   <path d="m 1,1043.3622 0,4 c 0,2.216 1.784,4 4,4 l 38,0 c 2.216,0 4,-1.784 4,-4 l 0,-4 c 0,2.216 -1.784,4 -4,4 l -38,0 c -2.216,0 -4,-1.784 -4,-4 z" opacity="0.1"/>
  </g>
 </g>
</svg>

<svg viewBox="0 0 48 48"><defs><linearGradient id="linearGradient3764" x1="1" x2="47" gradientUnits="userSpaceOnUse" gradientTransform="translate(-48.000001,0.00221467)"><stop stop-color="#d70909" stop-opacity="1"/><stop offset="1" stop-color="#ea0a0a" stop-opacity="1"/></linearGradient><clipPath id="clipPath-201259585"><g transform="translate(0,-1004.3622)"><rect rx="4" y="1005.36" x="1" height="46" width="46" fill="#1890d0"/></g></clipPath><clipPath id="clipPath-230367766"><g transform="translate(0,-1004.3622)"><rect rx="4" y="1005.36" x="1" height="46" width="46" fill="#1890d0"/></g></clipPath></defs><g><path d="m 1 43 l 0 0.25 c 0 2.216 1.784 4 4 4 l 38 0 c 2.216 0 4 -1.784 4 -4 l 0 -0.25 c 0 2.216 -1.784 4 -4 4 l -38 0 c -2.216 0 -4 -1.784 -4 -4 z m 0 0.5 l 0 0.5 c 0 2.216 1.784 4 4 4 l 38 0 c 2.216 0 4 -1.784 4 -4 l 0 -0.5 c 0 2.216 -1.784 4 -4 4 l -38 0 c -2.216 0 -4 -1.784 -4 -4 z" opacity="0.02"/><path d="m 1 43.25 l 0 0.25 c 0 2.216 1.784 4 4 4 l 38 0 c 2.216 0 4 -1.784 4 -4 l 0 -0.25 c 0 2.216 -1.784 4 -4 4 l -38 0 c -2.216 0 -4 -1.784 -4 -4 z" opacity="0.05"/><path d="m 1 43 l 0 0.25 c 0 2.216 1.784 4 4 4 l 38 0 c 2.216 0 4 -1.784 4 -4 l 0 -0.25 c 0 2.216 -1.784 4 -4 4 l -38 0 c -2.216 0 -4 -1.784 -4 -4 z" opacity="0.1"/></g><g><rect width="46" height="46" x="-47" y="1" rx="4" transform="matrix(0,-1,1,0,0,0)" fill="url(#linearGradient3764)" fill-opacity="1"/></g><g><g clip-path="url(#clipPath-201259585)"><g opacity="0.1"><!-- color: #ea0a0a --><g><path d="m 24 9 c -8.254 0 -15 6.754 -15 15.02 c 0 7.926 6.211 14.465 14 14.984 l 0 -2.098 c -6.695 -0.512 -11.938 -6.05 -11.938 -12.887 c 0 -7.184 5.762 -12.949 12.938 -12.949 c 7.176 0 12.938 5.766 12.938 12.949 l 2.063 0 c 0 -8.262 -6.746 -15.02 -15 -15.02 m 0 0" fill="#000"/><path d="m 24 13 c -6.164 0 -11 5.04 -11 11.01 c 0 5.641 4.328 10.434 10 10.949 l 0 -1.91 c -4.305 -0.512 -7.781 -4.262 -7.781 -9.04 c 0 -5.145 4.02 -9.133 8.781 -9.133 c 4.758 0 8.781 3.988 8.781 9.133 l 2.219 0 c 0 -5.973 -4.836 -11.01 -11 -11.01 m 0 0" fill="#000"/></g></g></g></g><g><g clip-path="url(#clipPath-230367766)"><g transform="translate(0,-1)"><!-- color: #ea0a0a --><g><path d="m 24 9 c -8.254 0 -15 6.754 -15 15.02 c 0 7.926 6.211 14.465 14 14.984 l 0 -2.098 c -6.695 -0.512 -11.938 -6.05 -11.938 -12.887 c 0 -7.184 5.762 -12.949 12.938 -12.949 c 7.176 0 12.938 5.766 12.938 12.949 l 2.063 0 c 0 -8.262 -6.746 -15.02 -15 -15.02 m 0 0" fill="#f9f9f9"/><path d="m 24 13 c -6.164 0 -11 5.04 -11 11.01 c 0 5.641 4.328 10.434 10 10.949 l 0 -1.91 c -4.305 -0.512 -7.781 -4.262 -7.781 -9.04 c 0 -5.145 4.02 -9.133 8.781 -9.133 c 4.758 0 8.781 3.988 8.781 9.133 l 2.219 0 c 0 -5.973 -4.836 -11.01 -11 -11.01 m 0 0" fill="#f9f9f9"/></g></g></g></g><g><g transform="translate(0,-1004.3622)"><path d="m 1 1043.36 0 4 c 0 2.216 1.784 4 4 4 l 38 0 c 2.216 0 4 -1.784 4 -4 l 0 -4 c 0 2.216 -1.784 4 -4 4 l -38 0 c -2.216 0 -4 -1.784 -4 -4 z" opacity="0.1"/></g></g></svg>
